;FLAVOR:Marlin
;TIME:2055
;Filament used: 2.88551m
;Layer height: 0.2
;MINX:5.324
;MINY:4.544
;MINZ:0.3
;MAXX:67.635
;MAXY:66.853
;MAXZ:6.1
;Generated with Cura_SteamEngine main
M104 S215
M105
M109 S215
M82 ;absolute extrusion mode
G1 Z15.0 F100 ;Move the platform down 15mm
;Prime the extruder
G92 E0
G1 F200 E3
G92 E0
G1 Z0.2 F100
G92 E0
G92 E0
G1 F2400 E-8.5
;LAYER_COUNT:30
;LAYER:0
M107
G0 F3000 X12.444 Y15.824 Z0.3
G0 X6.472 Y26.09
;TYPE:SKIRT
G1 F2400 E0
G1 F1800 X6.717 Y25.359 E0.04039
G1 X7.127 Y24.246 E0.10252
G1 X7.337 Y23.722 E0.13209
G1 X7.746 Y22.775 E0.18613
G1 X8.205 Y21.799 E0.24263
G1 X8.533 Y21.152 E0.28063
G1 X8.967 Y20.349 E0.32844
G1 X9.488 Y19.45 E0.38288
G1 X9.859 Y18.849 E0.41987
G1 X10.604 Y17.718 E0.49082
G1 X11.035 Y17.14 E0.52859
G1 X11.741 Y16.4 E0.58217
G1 X12.444 Y15.824 E0.62978
G1 X13.049 Y15.431 E0.66757
G1 X13.827 Y15.038 E0.71323
G1 X14.664 Y14.725 E0.76004
G1 X15.338 Y14.554 E0.79647
G1 X15.489 Y13.942 E0.82949
G1 X15.716 Y13.258 E0.86724
G1 X16.017 Y12.602 E0.90505
G1 X16.388 Y11.984 E0.94281
G1 X16.861 Y11.347 E0.98437
G1 X17.471 Y10.67 E1.03211
G1 X18.11 Y10.104 E1.07682
G1 X19.042 Y9.468 E1.13593
G1 X20.212 Y8.715 E1.20882
G1 X21.425 Y8.032 E1.28174
G1 X22.222 Y7.613 E1.32891
G1 X22.887 Y7.285 E1.36775
G1 X23.72 Y6.903 E1.41576
G1 X24.82 Y6.439 E1.4783
G1 X25.346 Y6.235 E1.50785
G1 X26.494 Y5.827 E1.57167
G1 X27.164 Y5.612 E1.60854
G1 X27.884 Y5.398 E1.64788
G1 X28.702 Y5.178 E1.69226
G1 X29.583 Y4.967 E1.73971
G1 X30.303 Y4.815 E1.77826
G1 X31.085 Y4.667 E1.81995
G1 X31.8 Y4.573 E1.85773
G1 X32.521 Y4.559 E1.89551
G1 X33.542 Y4.662 E1.94926
G1 X34.467 Y4.867 E1.99889
G1 X35.15 Y5.1 E2.0367
G1 X35.856 Y5.437 E2.07768
G1 X36.469 Y5.802 E2.11505
G1 X36.969 Y5.504 E2.14554
G1 X37.613 Y5.179 E2.18333
G1 X38.288 Y4.926 E2.22109
G1 X39.126 Y4.714 E2.26638
G1 X39.836 Y4.589 E2.30414
G1 X40.556 Y4.544 E2.34193
G1 X41.277 Y4.579 E2.37974
G1 X41.785 Y4.652 E2.40663
G1 X42.51 Y4.786 E2.44525
G1 X43.347 Y4.962 E2.49006
G1 X44.108 Y5.142 E2.53102
G1 X45.063 Y5.397 E2.5828
G1 X45.931 Y5.656 E2.63025
G1 X46.644 Y5.89 E2.66956
G1 X47.664 Y6.258 E2.72637
G1 X48.794 Y6.711 E2.79014
G1 X49.441 Y6.995 E2.82715
G1 X50.227 Y7.362 E2.8726
G1 X50.88 Y7.688 E2.91083
G1 X51.503 Y8.017 E2.94774
G1 X52.72 Y8.714 E3.0212
G1 X53.558 Y9.227 E3.07267
G1 X54.603 Y9.944 E3.13906
G1 X55.174 Y10.385 E3.17686
G1 X55.87 Y11.063 E3.22776
G1 X56.45 Y11.778 E3.27599
G1 X56.84 Y12.386 E3.31382
G1 X57.16 Y13.032 E3.35159
G1 X57.459 Y13.892 E3.39929
G1 X57.624 Y14.569 E3.43579
G1 X58.185 Y14.7 E3.46597
G1 X58.87 Y14.925 E3.50374
G1 X59.526 Y15.224 E3.5415
G1 X60.108 Y15.562 E3.57676
G1 X60.704 Y15.969 E3.61456
G1 X61.322 Y16.5 E3.65725
G1 X61.882 Y17.101 E3.70028
G1 X62.254 Y17.592 E3.73255
G1 X62.799 Y18.392 E3.78326
G1 X63.202 Y19.021 E3.82239
G1 X63.641 Y19.746 E3.86679
G1 X64.016 Y20.404 E3.90646
G1 X64.506 Y21.32 E3.96088
G1 X64.897 Y22.107 E4.00692
G1 X65.136 Y22.619 E4.03652
G1 X65.488 Y23.42 E4.08235
G1 X65.818 Y24.23 E4.12817
G1 X66.146 Y25.106 E4.17717
G1 X66.527 Y26.235 E4.23959
G1 X66.692 Y26.775 E4.26916
G1 X66.979 Y27.811 E4.32548
G1 X67.225 Y28.831 E4.38044
G1 X67.404 Y29.686 E4.4262
G1 X67.528 Y30.357 E4.46195
G1 X67.619 Y31.073 E4.49976
G1 X67.631 Y31.794 E4.53753
G1 X67.571 Y32.548 E4.57716
G1 X67.417 Y33.423 E4.6237
G1 X67.215 Y34.116 E4.66151
G1 X66.937 Y34.781 E4.69927
G1 X66.387 Y35.712 E4.75591
G1 X66.745 Y36.273 E4.79077
G1 X67.064 Y36.921 E4.82861
G1 X67.308 Y37.599 E4.86636
G1 X67.564 Y38.806 E4.93099
G1 X67.635 Y39.782 E4.98225
G1 X67.607 Y40.503 E5.02005
G1 X67.528 Y41.072 E5.05014
G1 X67.373 Y41.904 E5.09448
G1 X67.257 Y42.456 E5.12403
G1 X66.925 Y43.823 E5.19772
G1 X66.736 Y44.502 E5.23464
G1 X66.462 Y45.395 E5.28357
G1 X66.07 Y46.534 E5.34667
G1 X65.75 Y47.372 E5.39366
G1 X65.406 Y48.201 E5.44068
G1 X65.061 Y48.973 E5.48498
G1 X64.42 Y50.276 E5.56104
G1 X64.003 Y51.05 E5.6071
G1 X63.723 Y51.541 E5.63671
G1 X63.359 Y52.15 E5.67388
G1 X62.696 Y53.19 E5.73849
G1 X62.213 Y53.896 E5.7833
G1 X61.773 Y54.468 E5.8211
G1 X61.273 Y54.987 E5.85885
G1 X60.272 Y55.774 E5.92555
G1 X59.4 Y56.281 E5.97839
G1 X58.741 Y56.573 E6.01615
G1 X58.053 Y56.79 E6.05394
G1 X57.616 Y56.876 E6.07727
G1 X57.417 Y57.664 E6.11985
G1 X57.076 Y58.539 E6.16904
G1 X56.74 Y59.178 E6.20686
G1 X56.337 Y59.776 E6.24464
G1 X55.793 Y60.424 E6.28896
G1 X55.291 Y60.942 E6.32675
G1 X54.466 Y61.59 E6.3817
G1 X53.354 Y62.323 E6.45147
G1 X52.875 Y62.621 E6.48102
G1 X52.26 Y62.986 E6.51849
G1 X51.496 Y63.413 E6.56433
G1 X50.693 Y63.834 E6.61183
G1 X49.932 Y64.206 E6.6562
G1 X48.814 Y64.707 E6.72038
G1 X47.617 Y65.188 E6.78796
G1 X46.767 Y65.496 E6.83532
G1 X45.963 Y65.762 E6.87968
G1 X45.069 Y66.03 E6.92857
G1 X44.251 Y66.25 E6.97295
G1 X43.166 Y66.505 E7.03133
G1 X42.054 Y66.73 E7.09076
G1 X41.34 Y66.833 E7.12855
G1 X40.161 Y66.847 E7.19032
G1 X39.194 Y66.731 E7.24134
G1 X38.491 Y66.566 E7.27917
G1 X37.788 Y66.321 E7.31816
G1 X37.04 Y65.972 E7.3614
G1 X36.48 Y65.63 E7.39578
G1 X35.676 Y66.091 E7.44433
G1 X34.614 Y66.521 E7.50435
G1 X33.787 Y66.73 E7.54903
G1 X33.072 Y66.828 E7.58684
G1 X32.236 Y66.853 E7.63065
G1 X31.516 Y66.819 E7.66841
G1 X30.976 Y66.74 E7.697
G1 X30.281 Y66.609 E7.73405
G1 X29.1 Y66.348 E7.7974
G1 X27.888 Y66.03 E7.86304
G1 X26.983 Y65.76 E7.91252
G1 X26.179 Y65.494 E7.95688
G1 X25.029 Y65.07 E8.02109
G1 X24.325 Y64.787 E8.06083
G1 X23.225 Y64.301 E8.12383
G1 X22.257 Y63.833 E8.18015
G1 X21.405 Y63.386 E8.23056
G1 X20.545 Y62.899 E8.28233
G1 X19.889 Y62.504 E8.32244
G1 X19.032 Y61.954 E8.37578
G1 X18.313 Y61.463 E8.42139
G1 X17.743 Y61.022 E8.45915
G1 X17.224 Y60.521 E8.49693
G1 X16.758 Y59.967 E8.53486
G1 X16.338 Y59.381 E8.57263
G1 X15.816 Y58.409 E8.63042
G1 X15.5 Y57.573 E8.67724
G1 X15.321 Y56.874 E8.71504
G1 X14.473 Y56.644 E8.76106
G1 X13.463 Y56.222 E8.81841
G1 X12.689 Y55.774 E8.86525
G1 X11.822 Y55.105 E8.92262
G1 X11.223 Y54.5 E8.96722
G1 X10.782 Y53.944 E9.00439
G1 X10.348 Y53.325 E9.044
G1 X9.844 Y52.554 E9.09225
G1 X9.293 Y51.649 E9.14775
G1 X8.876 Y50.913 E9.19207
G1 X8.529 Y50.266 E9.23053
G1 X8.21 Y49.637 E9.26747
G1 X7.741 Y48.643 E9.32505
G1 X7.404 Y47.865 E9.36946
G1 X7.127 Y47.18 E9.40817
G1 X6.699 Y46.019 E9.47299
G1 X6.476 Y45.35 E9.50993
G1 X6.173 Y44.349 E9.56471
G1 X5.933 Y43.459 E9.613
G1 X5.728 Y42.596 E9.65947
G1 X5.551 Y41.749 E9.7048
G1 X5.443 Y41.168 E9.73575
G1 X5.324 Y40.009 E9.79679
G1 X5.355 Y39.14 E9.84234
G1 X5.46 Y38.427 E9.88009
G1 X5.728 Y37.438 E9.93377
G1 X6.085 Y36.549 E9.98395
G1 X6.427 Y35.914 E10.02173
G1 X6.561 Y35.73 E10.03366
G1 X6.154 Y35.024 E10.07635
G1 X5.709 Y33.943 E10.13759
G1 X5.462 Y33.012 E10.18804
G1 X5.356 Y32.299 E10.2258
G1 X5.324 Y31.444 E10.27062
G1 X5.397 Y30.495 E10.32048
G1 X5.654 Y29.164 E10.3915
G1 X5.858 Y28.269 E10.43958
G1 X6.132 Y27.226 E10.49607
G1 X6.472 Y26.09 E10.55819
G1 F2400 E2.05819
G0 F3000 X5.744 Y31.423
G1 F2400 E10.55819
G1 F1800 X5.86 Y30.314 E10.6166
G1 X6.064 Y29.256 E10.67305
G1 X6.218 Y28.568 E10.70998
G1 X6.477 Y27.554 E10.7648
G1 X6.871 Y26.221 E10.83762
G1 X7.111 Y25.503 E10.87728
G1 X7.45 Y24.576 E10.92898
G1 X7.727 Y23.879 E10.96827
G1 X8.131 Y22.942 E11.02172
G1 X8.58 Y21.988 E11.07696
G1 X8.903 Y21.351 E11.11437
G1 X9.33 Y20.559 E11.16151
G1 X9.753 Y19.826 E11.20584
G1 X10.32 Y18.908 E11.26236
G1 X10.954 Y17.95 E11.32254
G1 X11.372 Y17.391 E11.35911
G1 X12.03 Y16.706 E11.40886
G1 X12.71 Y16.15 E11.45488
G1 X13.298 Y15.773 E11.49146
G1 X14.003 Y15.42 E11.53277
G1 X14.811 Y15.119 E11.57794
G1 X15.692 Y14.9 E11.62549
G1 X15.837 Y14.226 E11.66161
G1 X16.115 Y13.39 E11.70776
G1 X16.41 Y12.758 E11.74429
G1 X16.775 Y12.163 E11.78086
G1 X17.315 Y11.47 E11.82688
G1 X17.783 Y10.953 E11.86341
G1 X18.386 Y10.424 E11.90543
G1 X19.269 Y9.821 E11.96145
G1 X20.424 Y9.078 E12.03339
G1 X21.631 Y8.398 E12.10596
G1 X22.408 Y7.989 E12.15196
G1 X22.913 Y7.738 E12.1815
G1 X23.705 Y7.369 E12.22727
G1 X24.794 Y6.903 E12.28932
G1 X25.656 Y6.568 E12.33777
G1 X26.453 Y6.284 E12.38209
G1 X27.285 Y6.014 E12.42791
G1 X27.993 Y5.804 E12.4666
G1 X28.993 Y5.538 E12.5208
G1 X29.679 Y5.376 E12.55773
G1 X30.389 Y5.226 E12.59574
G1 X31.162 Y5.08 E12.63695
G1 X31.854 Y4.99 E12.67351
G1 X32.552 Y4.981 E12.71007
G1 X33.484 Y5.078 E12.75916
G1 X34.375 Y5.278 E12.807
G1 X35.034 Y5.507 E12.84354
G1 X35.789 Y5.871 E12.88745
G1 X36.469 Y6.299 E12.92954
G1 X37.179 Y5.868 E12.97305
G1 X37.802 Y5.554 E13.0096
G1 X38.457 Y5.314 E13.04614
G1 X39.221 Y5.123 E13.08739
G1 X39.909 Y5.004 E13.12397
G1 X40.605 Y4.964 E13.16049
G1 X41.414 Y5.01 E13.20294
G1 X42.434 Y5.199 E13.25728
G1 X43.141 Y5.347 E13.29512
G1 X44 Y5.548 E13.34133
G1 X44.955 Y5.803 E13.39311
G1 X45.674 Y6.016 E13.43239
G1 X46.503 Y6.286 E13.47807
G1 X47.509 Y6.648 E13.53407
G1 X48.427 Y7.013 E13.58582
G1 X49.399 Y7.437 E13.64137
G1 X50.04 Y7.738 E13.67847
G1 X50.546 Y7.989 E13.70806
G1 X51.492 Y8.491 E13.76416
G1 X52.501 Y9.072 E13.82515
G1 X53.325 Y9.576 E13.87575
G1 X54.365 Y10.29 E13.94184
G1 X54.917 Y10.717 E13.97839
G1 X55.565 Y11.351 E14.02588
G1 X56.123 Y12.043 E14.07245
G1 X56.497 Y12.632 E14.109
G1 X56.801 Y13.261 E14.1456
G1 X57.11 Y14.169 E14.19584
G1 X57.269 Y14.922 E14.23616
G1 X57.945 Y15.062 E14.27232
G1 X58.739 Y15.324 E14.31612
G1 X59.755 Y15.828 E14.37553
G1 X60.466 Y16.316 E14.42071
G1 X61.033 Y16.805 E14.45993
G1 X61.574 Y17.387 E14.50155
G1 X61.908 Y17.83 E14.53062
G1 X62.352 Y18.478 E14.57177
G1 X62.751 Y19.093 E14.61017
G1 X63.374 Y20.121 E14.67314
G1 X63.651 Y20.611 E14.70262
G1 X64.13 Y21.507 E14.75585
G1 X64.445 Y22.137 E14.79274
G1 X64.755 Y22.797 E14.83094
G1 X65.1 Y23.579 E14.87572
G1 X65.367 Y24.23 E14.91258
G1 X65.749 Y25.241 E14.96919
G1 X66.067 Y26.176 E15.02093
G1 X66.334 Y27.046 E15.0686
G1 X66.571 Y27.91 E15.11553
G1 X66.772 Y28.732 E15.15986
G1 X66.991 Y29.762 E15.21502
G1 X67.115 Y30.433 E15.25077
G1 X67.202 Y31.126 E15.28736
G1 X67.209 Y31.823 E15.32387
G1 X67.125 Y32.663 E15.36809
G1 X67.003 Y33.35 E15.40464
G1 X66.803 Y34.019 E15.44122
G1 X66.528 Y34.66 E15.47776
G1 X66.085 Y35.41 E15.52339
G1 X65.884 Y35.702 E15.54196
G1 X66.39 Y36.499 E15.59141
G1 X66.695 Y37.127 E15.62799
G1 X66.925 Y37.785 E15.6645
G1 X67.149 Y38.871 E15.72259
G1 X67.215 Y39.812 E15.772
G1 X67.179 Y40.654 E15.81615
G1 X66.962 Y41.817 E15.87813
G1 X66.846 Y42.369 E15.90767
G1 X66.52 Y43.71 E15.97997
G1 X66.289 Y44.533 E16.02475
G1 X66.064 Y45.26 E16.06461
G1 X65.746 Y46.194 E16.1163
G1 X65.362 Y47.212 E16.17329
G1 X65.022 Y48.03 E16.2197
G1 X64.581 Y49.006 E16.2758
G1 X64.05 Y50.077 E16.33842
G1 X63.638 Y50.842 E16.38394
G1 X63.289 Y51.451 E16.42071
G1 X62.916 Y52.069 E16.45852
G1 X62.461 Y52.784 E16.50292
G1 X61.866 Y53.659 E16.55835
G1 X61.44 Y54.211 E16.59488
G1 X60.953 Y54.711 E16.63144
G1 X60.034 Y55.428 E16.6925
G1 X59.189 Y55.918 E16.74367
G1 X58.549 Y56.196 E16.78022
G1 X57.882 Y56.4 E16.81676
G1 X57.284 Y56.497 E16.84849
G1 X57.015 Y57.545 E16.90517
G1 X56.684 Y58.386 E16.95252
G1 X56.356 Y59.002 E16.98908
G1 X55.652 Y59.968 E17.05169
G1 X54.989 Y60.649 E17.10148
G1 X54.234 Y61.24 E17.15171
G1 X53.276 Y61.874 E17.21189
G1 X52.533 Y62.337 E17.25775
G1 X51.909 Y62.703 E17.29564
G1 X51.292 Y63.046 E17.33262
G1 X50.665 Y63.377 E17.36976
G1 X49.748 Y63.828 E17.4233
G1 X48.643 Y64.323 E17.48672
G1 X47.473 Y64.794 E17.55279
G1 X46.635 Y65.097 E17.59947
G1 X45.831 Y65.363 E17.64384
G1 X44.96 Y65.624 E17.69147
G1 X44.142 Y65.844 E17.73584
G1 X43.083 Y66.093 E17.79283
G1 X41.971 Y66.318 E17.85226
G1 X41.28 Y66.417 E17.88883
G1 X40.181 Y66.428 E17.9464
G1 X39.244 Y66.313 E17.99586
G1 X38.566 Y66.15 E18.03238
G1 X37.939 Y65.93 E18.06719
G1 X37.218 Y65.591 E18.10893
G1 X36.46 Y65.122 E18.15562
G1 X36.073 Y65.38 E18.17999
G1 X35.467 Y65.726 E18.21654
G1 X34.486 Y66.121 E18.27194
G1 X33.684 Y66.322 E18.31525
G1 X32.993 Y66.413 E18.35176
G1 X32.233 Y66.433 E18.39159
G1 X31.385 Y66.392 E18.43606
G1 X30.155 Y66.155 E18.50168
G1 X29.191 Y65.939 E18.55343
G1 X27.822 Y65.575 E18.62764
G1 X27.115 Y65.361 E18.66634
G1 X26.311 Y65.095 E18.7107
G1 X25.007 Y64.611 E18.78356
G1 X24.299 Y64.32 E18.82366
G1 X23.201 Y63.827 E18.88671
G1 X22.441 Y63.456 E18.93101
G1 X21.612 Y63.02 E18.98008
G1 X20.59 Y62.438 E19.04169
G1 X19.971 Y62.06 E19.07968
G1 X19.259 Y61.601 E19.12406
G1 X18.551 Y61.117 E19.16899
G1 X18 Y60.69 E19.2055
G1 X17.501 Y60.202 E19.24207
G1 X17.085 Y59.703 E19.2761
G1 X16.68 Y59.136 E19.3126
G1 X16.199 Y58.237 E19.36601
G1 X15.893 Y57.425 E19.41147
G1 X15.724 Y56.748 E19.44802
G1 X15.695 Y56.507 E19.46073
G1 X15.257 Y56.423 E19.4841
G1 X14.584 Y56.238 E19.52066
G1 X13.649 Y55.846 E19.57377
G1 X12.9 Y55.41 E19.61917
G1 X12.1 Y54.791 E19.67216
G1 X11.522 Y54.204 E19.71531
G1 X11.125 Y53.701 E19.74888
G1 X10.699 Y53.094 E19.78773
G1 X10.202 Y52.335 E19.83525
G1 X9.76 Y51.614 E19.87955
G1 X9.31 Y50.829 E19.92695
G1 X8.904 Y50.076 E19.97177
G1 X8.51 Y49.294 E20.01764
G1 X8.127 Y48.476 E20.06495
G1 X7.79 Y47.698 E20.10937
G1 X7.517 Y47.023 E20.14751
G1 X7.098 Y45.886 E20.21099
G1 X6.818 Y45.039 E20.25772
G1 X6.575 Y44.228 E20.30207
G1 X6.382 Y43.521 E20.34046
G1 X6.176 Y42.676 E20.38602
G1 X5.993 Y41.818 E20.43198
G1 X5.856 Y41.091 E20.47073
G1 X5.744 Y39.999 E20.52824
G1 X5.775 Y39.156 E20.57243
G1 X5.881 Y38.466 E20.609
G1 X6.13 Y37.561 E20.65817
G1 X6.476 Y36.706 E20.70648
G1 X6.81 Y36.094 E20.74301
G1 X7.085 Y35.717 E20.76745
G1 X6.853 Y35.4 E20.78803
G1 X6.508 Y34.794 E20.82456
G1 X6.105 Y33.804 E20.88055
G1 X5.869 Y32.905 E20.92924
G1 X5.77 Y32.214 E20.96581
G1 X5.744 Y31.423 E21.00727
G0 F3000 X7.42 Y31.496
G1 F1800 X7.51 Y30.628 E21.05298
G1 X7.703 Y29.623 E21.10659
G1 X7.891 Y28.794 E21.15112
G1 X8.145 Y27.823 E21.2037
G1 X8.466 Y26.748 E21.26247
G1 X8.689 Y26.08 E21.29936
G1 X9.076 Y25.027 E21.35813
G1 X9.286 Y24.503 E21.3877
G1 X9.727 Y23.489 E21.44562
G1 X10.028 Y22.85 E21.48262
G1 X10.334 Y22.24 E21.51837
G1 X10.785 Y21.399 E21.56837
G1 X11.208 Y20.666 E21.6127
G1 X11.721 Y19.835 E21.66386
G1 X12.355 Y18.877 E21.72404
G1 X12.716 Y18.405 E21.75516
G1 X13.305 Y17.829 E21.79832
G1 X13.769 Y17.458 E21.82944
G1 X14.637 Y16.971 E21.88158
G1 X15.392 Y16.698 E21.92364
G1 X16.247 Y16.542 E21.96916
G1 X16.918 Y16.511 E22.00435
G1 X17.274 Y16.156 E22.03069
G1 X17.273 Y15.734 E22.05279
G1 X17.442 Y14.708 E22.10727
G1 X17.71 Y13.929 E22.15042
G1 X17.977 Y13.399 E22.18151
G1 X18.464 Y12.696 E22.22631
G1 X19.025 Y12.089 E22.26961
G1 X19.552 Y11.662 E22.30514
G1 X20.063 Y11.31 E22.33764
G1 X21.292 Y10.517 E22.41426
G1 X22.455 Y9.862 E22.48418
G1 X23.156 Y9.494 E22.52566
G1 X23.661 Y9.243 E22.5552
G1 X24.541 Y8.836 E22.60599
G1 X25.579 Y8.397 E22.66503
G1 X26.105 Y8.193 E22.69458
G1 X27.14 Y7.825 E22.75213
G1 X27.768 Y7.623 E22.78668
G1 X28.43 Y7.426 E22.82286
G1 X29.248 Y7.206 E22.86724
G1 X30.065 Y7.011 E22.91124
G1 X30.817 Y6.854 E22.95148
G1 X31.472 Y6.731 E22.98639
G1 X32.062 Y6.661 E23.01752
G1 X32.655 Y6.67 E23.04858
G1 X33.422 Y6.783 E23.0892
G1 X34 Y6.918 E23.12029
G1 X34.554 Y7.13 E23.15136
G1 X35.103 Y7.421 E23.18391
G1 X35.602 Y7.742 E23.21499
G1 X36.053 Y8.128 E23.24609
G1 X36.221 Y8.307 E23.25895
G1 X36.695 Y8.305 E23.28378
G1 X36.79 Y8.197 E23.29132
G1 X37.24 Y7.81 E23.32241
G1 X37.853 Y7.405 E23.3609
G1 X38.552 Y7.061 E23.40171
G1 X39.393 Y6.793 E23.44795
G1 X40.188 Y6.663 E23.49014
G1 X40.781 Y6.648 E23.52122
G1 X41.404 Y6.717 E23.55405
G1 X42.129 Y6.851 E23.59268
G1 X42.874 Y7.008 E23.63256
G1 X43.567 Y7.171 E23.66985
G1 X44.522 Y7.426 E23.72163
G1 X45.191 Y7.625 E23.7582
G1 X45.94 Y7.868 E23.79945
G1 X46.738 Y8.152 E23.84382
G1 X47.806 Y8.574 E23.90397
G1 X48.597 Y8.918 E23.94916
G1 X49.294 Y9.243 E23.98944
