; generated by SuperSlicer 2.4 on 2023-07-02 at 00:03:41 UTC

; 

; external perimeters extrusion width = 0.42mm
; perimeters extrusion width = 0.46mm
; infill extrusion width = 0.44mm
; solid infill extrusion width = 0.46mm
; top infill extrusion width = 0.44mm
; first layer extrusion width = 0.60mm

; object:{"name":"Cable_Chain_Link_Branded","id":"Cable_Chain_Link_Branded.stl id:0 copy 0","object_center":[151.459216,150.976985,0.000000],"boundingbox_center":[151.459216,150.976985,7.500000],"boundingbox_size":[40.497513,25.495089,15.000000]}
; plater:{"center":[151.459216,150.976985,0.000000],"boundingbox_center":[151.459216,150.976985,7.500000],"boundingbox_size":[40.497513,25.495089,15.000000]}

;TYPE:Custom
G28 ; home all axes
G1 Z5 F5 ; lift nozzle
M107
G21 ; set units to millimeters
G90 ; use absolute coordinates
M82 ; use absolute distances for extrusion
G92 E0
; Filament gcode
;_TOOLCHANGE 0
M104 S195 ; set temperature
M109 S195 ; set temperature and wait for it to be reached
M107
;LAYER_CHANGE
;Z:0.3
;HEIGHT:0.3
G1 Z0.3 F3600
G1 E-6 F2400
G1 Z2.3 F3600
G1 X128.83 Y136.612
G1 Z0.3
G1 E0 F2400
;TYPE:Skirt
;WIDTH:0.44
G1 F1200
G1 X127.684 Y138.661 E0.10998
G1 X127.287 Y140.975 E0.21997
G1 X127.287 Y160.975 E1.15695
G1 X127.448 Y162.463 E1.22711
G1 X128.333 Y164.638 E1.3371
G1 X129.891 Y166.393 E1.44708
G1 X131.946 Y167.529 E1.55706
G1 X139.853 Y170.279 E1.94927
G1 X142.133 Y170.664 E2.05757
G1 X165.698 Y170.664 E3.16156
G1 X167.151 Y170.51 E3.23003
G1 X169.33 Y169.637 E3.34001
G1 X171.094 Y168.087 E3.44999
G1 X172.239 Y166.038 E3.55998
G1 X172.637 Y163.725 E3.66996
G1 X172.637 Y138.229 E4.86439
G1 X172.483 Y136.776 E4.93285
G1 X171.61 Y134.597 E5.04283
G1 X170.06 Y132.833 E5.15282
G1 X168.011 Y131.688 E5.2628
G1 X165.698 Y131.29 E5.37278
G1 X142.132 Y131.29 E6.47679
G1 X139.857 Y131.674 E6.58492
G1 X131.95 Y134.419 E6.97704
G1 X130.593 Y135.062 E7.04737
G1 X128.875 Y136.572 E7.15454
G1 X129.197 Y136.759 F3600
G1 F1200
G1 X128.059 Y138.727 E7.26104
G1 X127.662 Y140.975 E7.36798
G1 X127.662 Y160.975 E8.30497
G1 X127.777 Y162.197 E8.36251
G1 X128.586 Y164.332 E8.46945
G1 X130.077 Y166.06 E8.57639
G1 X132.07 Y167.174 E8.68334
G1 X139.977 Y169.924 E9.07554
G1 X142.133 Y170.288 E9.17798
G1 X165.698 Y170.288 E10.28197
G1 X168.971 Y169.414 E10.44069
G1 X170.721 Y167.948 E10.54764
G1 X171.864 Y165.972 E10.65458
G1 X172.261 Y163.725 E10.76152
G1 X172.261 Y138.229 E11.95595
G1 X171.387 Y134.956 E12.11467
G1 X169.921 Y133.206 E12.22162
G1 X167.945 Y132.063 E12.32856
G1 X165.698 Y131.666 E12.4355
G1 X142.132 Y131.666 E13.53951
G1 X139.98 Y132.029 E13.64178
G1 X132.073 Y134.774 E14.0339
G1 X130.953 Y135.285 E14.0916
G1 X129.241 Y136.718 E14.19618
G1 X129.563 Y136.912 F3600
G1 F1200
G1 X128.435 Y138.794 E14.29903
G1 X128.038 Y140.975 E14.40284
G1 X128.038 Y160.975 E15.33983
G1 X128.844 Y164.028 E15.48775
G1 X130.264 Y165.728 E15.59157
G1 X132.193 Y166.819 E15.69538
G1 X140.1 Y169.569 E16.08759
G1 X142.133 Y169.912 E16.18416
G1 X165.698 Y169.912 E17.28816
G1 X168.613 Y169.182 E17.42897
G1 X170.349 Y167.805 E17.53278
G1 X171.489 Y165.905 E17.6366
G1 X171.885 Y163.725 E17.74041
G1 X171.885 Y138.229 E18.93484
G1 X171.155 Y135.314 E19.07565
G1 X169.778 Y133.578 E19.17947
G1 X167.878 Y132.438 E19.28328
G1 X165.698 Y132.042 E19.38709
G1 X142.132 Y132.042 E20.4911
G1 X140.103 Y132.384 E20.58752
G1 X132.196 Y135.129 E20.97964
G1 X129.607 Y136.872 E21.12587
G92 E0
G1 E-6 F2400
G1 Z2.3 F3600
; printing object Cable_Chain_Link_Branded.stl id:0 copy 0
G1 X144.592 Y153.706
G1 Z0.3
G1 E0 F2400
;TYPE:Internal perimeter
;WIDTH:0.604
G1 F1200
G1 X155.901 Y153.706 E0.76117
G1 X155.901 Y162.343 E1.34251
G1 X143.514 Y162.343 E2.17621
G1 X143.514 Y159.606 E2.36046
G1 X144.592 Y159.606 E2.43299
G1 X144.592 Y153.766 E2.82605
G1 X144.052 Y153.166 F3600
G1 F1200
G1 X156.441 Y153.166 E3.65985
G1 X156.441 Y161.816 E4.24204
G1 X164.856 Y161.816 E4.80842
G1 X164.856 Y162.883 E4.88022
G1 X142.974 Y162.883 E6.35294
G1 X142.974 Y160.133 E6.53802
G1 X135.067 Y160.133 E7.0702
G1 X135.067 Y159.066 E7.142
G1 X144.052 Y159.066 E7.74671
G1 X144.052 Y153.226 E8.13977
G1 X143.512 Y152.627 F3600
;TYPE:External perimeter
G1 F1080
G1 X156.98 Y152.627 E9.04621
G1 X156.98 Y161.277 E9.62839
G1 X165.396 Y161.277 E10.19478
G1 X165.396 Y163.423 E10.33921
G1 X142.435 Y163.423 E11.88457
G1 X142.435 Y160.673 E12.06966
G1 X134.528 Y160.673 E12.60184
G1 X134.528 Y158.527 E12.74627
G1 X143.512 Y158.527 E13.35098
G1 X143.512 Y152.687 E13.74404
;WIPE_START
G1 X143.859 Y152.827 F3600
;WIPE_END
G92 E0
G1 E-6 F2400
G1 Z2.3 F3600
G1 X143.266 Y159.6
G1 Z0.3
G1 E0 F2400
;TYPE:Gap fill
;WIDTH:0.635013
G1 F1080
G1 X135.315 Y159.6 E0.56586
G92 E0
G1 E-6 F2400
G1 Z2.3 F3600
G1 X154.648 Y153.868
G1 Z0.3
G1 E0 F2400
;TYPE:Solid infill
;WIDTH:0.596829
G1 F1080
G1 X155.507 Y154.726 E0.08077
G1 X155.507 Y155.49 E0.13152
G1 X154.117 Y154.1 E0.26224
G1 X153.354 Y154.1 E0.313
G1 X155.507 Y156.253 E0.51549
G1 X155.507 Y157.016 E0.56625
G1 X152.591 Y154.1 E0.84052
G1 X151.828 Y154.1 E0.89127
G1 X155.507 Y157.779 E1.23732
G1 X155.507 Y158.542 E1.28807
G1 X151.065 Y154.1 E1.70589
G1 X150.302 Y154.1 E1.75664
G1 X155.507 Y159.305 E2.24624
G1 X155.507 Y160.068 E2.29699
G1 X149.538 Y154.1 E2.85836
G1 X148.775 Y154.1 E2.90912
G1 X155.507 Y160.831 E3.54226
G1 X155.507 Y161.595 E3.59301
G1 X148.012 Y154.1 E4.29794
G1 X147.249 Y154.1 E4.34869
G1 X155.099 Y161.949 E5.08698
G1 X154.336 Y161.949 E5.13773
G1 X146.486 Y154.1 E5.87602
G1 X145.723 Y154.1 E5.92677
G1 X153.572 Y161.949 E6.66506
G1 X152.809 Y161.949 E6.71581
G1 X144.986 Y154.126 E7.45166
G1 X144.986 Y154.889 E7.50241
G1 X152.046 Y161.949 E8.16648
G1 X151.283 Y161.949 E8.21723
G1 X144.986 Y155.652 E8.80953
G1 X144.986 Y156.415 E8.86028
G1 X150.52 Y161.949 E9.3808
G1 X149.757 Y161.949 E9.43155
G1 X144.986 Y157.178 E9.8803
G1 X144.986 Y157.941 E9.93105
G1 X148.994 Y161.949 E10.30802
G1 X148.231 Y161.949 E10.35878
G1 X144.986 Y158.704 E10.66397
G1 X144.986 Y159.468 E10.71472
G1 X147.467 Y161.949 E10.94814
G1 X146.704 Y161.949 E10.9989
G1 X144.755 Y160 E11.18228
G1 X143.991 Y160 E11.23303
G1 X145.941 Y161.949 E11.41641
G1 X145.178 Y161.949 E11.46716
G1 X143.908 Y160.679 E11.58662
G1 X143.908 Y161.442 E11.63737
G1 X144.647 Y162.181 E11.70688
G92 E0
G1 E-6 F2400
G1 Z2.3 F3600
G1 X156.149 Y162.35
G1 Z0.3
G1 E0 F2400
;TYPE:Gap fill
;WIDTH:0.635014
G1 F1080
G1 X164.608 Y162.35 E0.60203
G92 E0
G1 E-6 F2400
G1 Z2.3 F3600
G1 X155.901 Y148.243
G1 Z0.3
G1 E0 F2400
;TYPE:Internal perimeter
;WIDTH:0.604
G1 F1200
G1 X144.592 Y148.243 E0.76117
G1 X144.592 Y142.343 E1.15826
G1 X143.514 Y142.343 E1.23082
G1 X143.514 Y139.611 E1.41473
G1 X155.901 Y139.611 E2.24845
G1 X155.901 Y148.183 E2.82543
G1 X156.441 Y148.783 F3600
G1 F1200
G1 X144.052 Y148.783 E3.65923
G1 X144.052 Y142.883 E4.05633
G1 X135.067 Y142.883 E4.66104
G1 X135.067 Y141.816 E4.73284
G1 X142.974 Y141.816 E5.265
G1 X142.974 Y139.071 E5.44975
G1 X164.856 Y139.071 E6.92249
G1 X164.856 Y140.133 E6.99396
G1 X156.441 Y140.133 E7.56034
G1 X156.441 Y148.723 E8.13849
G1 X156.98 Y149.323 F3600
;TYPE:External perimeter
G1 F1080
G1 X143.512 Y149.323 E9.04493
G1 X143.512 Y143.423 E9.44202
G1 X134.528 Y143.423 E10.04674
G1 X134.528 Y141.277 E10.19117
G1 X142.434 Y141.277 E10.72333
G1 X142.434 Y138.531 E10.90809
G1 X165.396 Y138.531 E12.45347
G1 X165.396 Y140.673 E12.59757
G1 X156.98 Y140.673 E13.16395
G1 X156.98 Y149.263 E13.7421
;WIPE_START
G1 X156.634 Y149.123 F3600
;WIPE_END
G92 E0
G1 E-6 F2400
G1 Z2.3 F3600
G1 X156.149 Y139.602
G1 Z0.3
G1 E0 F2400
;TYPE:Gap fill
;WIDTH:0.630102
G1 F1080
G1 X156.291 Y139.602 E0.00998
G1 X156.432 Y139.602 E0.01996
G1 X164.608 Y139.602 E0.59685
G92 E0
G1 E-6 F2400
G1 Z2.3 F3600
G1 X154.648 Y139.773
G1 Z0.3
G1 E0 F2400
;TYPE:Solid infill
;WIDTH:0.598608
G1 F1080
G1 X155.507 Y140.631 E0.08101
G1 X155.507 Y141.394 E0.13191
G1 X154.117 Y140.005 E0.26303
G1 X153.354 Y140.005 E0.31393
G1 X155.507 Y142.158 E0.51703
G1 X155.507 Y142.921 E0.56793
G1 X152.591 Y140.005 E0.84302
G1 X151.828 Y140.005 E0.89393
G1 X155.507 Y143.684 E1.241
G1 X155.507 Y144.447 E1.29191
G1 X151.065 Y140.005 E1.71097
G1 X150.302 Y140.005 E1.76188
G1 X155.507 Y145.21 E2.25293
G1 X155.507 Y145.973 E2.30384
G1 X149.538 Y140.005 E2.86688
G1 X148.775 Y140.005 E2.91778
G1 X155.507 Y146.736 E3.55282
G1 X155.507 Y147.5 E3.60372
G1 X148.012 Y140.005 E4.31074
G1 X147.249 Y140.005 E4.36165
G1 X155.094 Y147.849 E5.10167
G1 X154.331 Y147.849 E5.15258
G1 X146.486 Y140.005 E5.8926
G1 X145.723 Y140.005 E5.94351
G1 X153.568 Y147.849 E6.68353
G1 X152.804 Y147.849 E6.73444
G1 X144.96 Y140.005 E7.47446
G1 X144.196 Y140.005 E7.52536
G1 X152.041 Y147.849 E8.26539
G1 X151.278 Y147.849 E8.31629
G1 X143.908 Y140.479 E9.01158
G1 X143.908 Y141.242 E9.06249
G1 X150.515 Y147.849 E9.68579
G1 X149.752 Y147.849 E9.73669
G1 X144.986 Y143.083 E10.18631
G1 X144.986 Y143.846 E10.23721
G1 X148.989 Y147.849 E10.61484
G1 X148.226 Y147.849 E10.66575
G1 X144.986 Y144.609 E10.97139
G1 X144.986 Y145.373 E11.02229
G1 X147.462 Y147.849 E11.25595
G1 X146.699 Y147.849 E11.30685
G1 X144.986 Y146.136 E11.46851
G1 X144.986 Y146.899 E11.51942
G1 X145.936 Y147.849 E11.60909
G1 X145.173 Y147.849 E11.66
G1 X144.754 Y147.43 E11.69957
G92 E0
G1 E-6 F2400
G1 Z2.3 F3600
G1 X143.266 Y142.35
G1 Z0.3
G1 E0 F2400
;TYPE:Gap fill
;WIDTH:0.635015
G1 F1080
G1 X135.315 Y142.35 E0.56584
M106 S30.6
;LAYER_CHANGE
;Z:0.5
;HEIGHT:0.2
; stop printing object Cable_Chain_Link_Branded.stl id:0 copy 0
G1 Z0.5 F3600
M104 S190 ; set temperature
G92 E0
G1 E-6 F2400
G1 Z2.5 F3600
; printing object Cable_Chain_Link_Branded.stl id:0 copy 0
G1 X144.241 Y153.105
G1 Z0.5
G1 E0 F2400
;TYPE:Internal perimeter
;WIDTH:0.464
G1 F2160
G1 X156.252 Y153.105 E0.42056
G1 X156.252 Y162.005 E0.73217
G1 X165.59 Y162.005 E1.05911
G1 X165.59 Y162.694 E1.08326
G1 X143.438 Y162.694 E1.85885
G1 X143.438 Y159.944 E1.95513
G1 X134.324 Y159.944 E2.27424
G1 X134.324 Y159.255 E2.29839
G1 X144.241 Y159.255 E2.64559
G1 X144.241 Y153.165 E2.85882
G1 X143.82 Y152.684 F3600
G1 F2160
G1 X156.673 Y152.684 E3.30886
G1 X156.673 Y161.584 E3.62048
G1 X165.741 Y161.584 E3.93795
;TYPE:Overhang perimeter
;WIDTH:0.4
;HEIGHT:0.4
M106 S84.15
G1 X166.011 Y161.584 E3.95208
G1 X166.011 Y163.115 E4.03211
G1 X165.785 Y163.115 E4.04394
M106 S30.6
;TYPE:Internal perimeter
;WIDTH:0.464
;HEIGHT:0.2
G1 X143.017 Y163.115 E4.84108
G1 X143.017 Y160.365 E4.93737
G1 X134.183 Y160.365 E5.2467
;TYPE:Overhang perimeter
;WIDTH:0.4
;HEIGHT:0.4
M106 S84.15
G1 X133.903 Y160.365 E5.2613
G1 X133.903 Y158.834 E5.34133
G1 X134.139 Y158.834 E5.35363
M106 S30.6
;TYPE:Internal perimeter
;WIDTH:0.464
;HEIGHT:0.2
G1 X143.82 Y158.834 E5.69258
G1 X143.82 Y152.744 E5.90581
G1 X143.42 Y152.285 F3600
;TYPE:Overhang perimeter
;WIDTH:0.42
M106 S84.15
G1 F2160
G1 X157.072 Y152.285 E6.33385
G1 X157.072 Y152.317 E6.33486
M106 S30.6
;TYPE:External perimeter
G1 F1080
G1 X157.072 Y161.185 E6.61291
G1 X165.741 Y161.185 E6.88469
;TYPE:Overhang perimeter
;WIDTH:0.4
;HEIGHT:0.4
M106 S84.15
G1 F2160
G1 X165.785 Y161.185 E6.88699
G1 X166.41 Y161.185 E6.91967
G1 X166.41 Y163.515 E7.0414
G1 X165.785 Y163.515 E7.07408
M106 S30.6
;TYPE:External perimeter
;WIDTH:0.42
;HEIGHT:0.2
G1 F1080
G1 X142.618 Y163.515 E7.80044
G1 X142.618 Y160.765 E7.88666
G1 X134.183 Y160.765 E8.15116
;TYPE:Overhang perimeter
;WIDTH:0.4
;HEIGHT:0.4
M106 S84.15
G1 F2160
G1 X133.504 Y160.765 E8.18661
G1 X133.504 Y158.435 E8.30834
G1 X134.139 Y158.435 E8.34149
M106 S30.6
;TYPE:External perimeter
;WIDTH:0.42
;HEIGHT:0.2
G1 F1080
G1 X143.42 Y158.435 E8.63251
G1 X143.42 Y152.345 E8.82346
;WIPE_START
G1 X143.767 Y152.485 F3600
;WIPE_END
G1 X144.367 Y153.824
;TYPE:Solid infill
;WIDTH:0.499518
G1 F1080
G1 X144.779 Y153.412 E8.84544
G1 X145.375 Y153.412 E8.86789
G1 X144.548 Y154.239 E8.91196
G1 X144.548 Y154.834 E8.9344
G1 X145.97 Y153.412 E9.01022
G1 X146.566 Y153.412 E9.03267
G1 X144.548 Y155.43 E9.14023
G1 X144.548 Y156.025 E9.16267
G1 X147.161 Y153.412 E9.30198
G1 X147.757 Y153.412 E9.32442
G1 X144.548 Y156.621 E9.49547
G1 X144.548 Y157.216 E9.51792
G1 X148.352 Y153.412 E9.72071
G1 X148.948 Y153.412 E9.74315
G1 X144.548 Y157.812 E9.97769
G1 X144.548 Y158.407 E10.00013
G1 X149.543 Y153.412 E10.26641
G1 X150.139 Y153.412 E10.28886
G1 X144.548 Y159.003 E10.58688
G1 X144.548 Y159.562 E10.60796
G1 X143.989 Y159.562 E10.62904
G1 X143.746 Y159.805 E10.64199
G1 X143.746 Y160.4 E10.66443
G1 X150.734 Y153.412 E11.03696
G1 X151.33 Y153.412 E11.0594
G1 X143.746 Y160.996 E11.46367
G1 X143.746 Y161.591 E11.48611
G1 X151.925 Y153.412 E11.92212
G1 X152.521 Y153.412 E11.94457
G1 X143.746 Y162.187 E12.41232
G1 X143.746 Y162.387 E12.41987
G1 X144.141 Y162.387 E12.43477
G1 X153.116 Y153.412 E12.91319
G1 X153.712 Y153.412 E12.93564
G1 X144.737 Y162.387 E13.41406
G1 X145.332 Y162.387 E13.4365
G1 X154.307 Y153.412 E13.91492
G1 X154.903 Y153.412 E13.93737
G1 X145.928 Y162.387 E14.41579
G1 X146.523 Y162.387 E14.43823
G1 X155.498 Y153.412 E14.91665
G1 X155.945 Y153.412 E14.93348
G1 X155.945 Y153.561 E14.9391
G1 X147.119 Y162.387 E15.40958
G1 X147.714 Y162.387 E15.43202
G1 X155.945 Y154.156 E15.87076
G1 X155.945 Y154.752 E15.89321
G1 X148.31 Y162.387 E16.3002
G1 X148.905 Y162.387 E16.32265
G1 X155.945 Y155.347 E16.69789
G1 X155.945 Y155.943 E16.72034
G1 X149.501 Y162.387 E17.06385
G1 X150.096 Y162.387 E17.08629
G1 X155.945 Y156.538 E17.39805
G1 X155.945 Y157.134 E17.4205
G1 X150.692 Y162.387 E17.70052
G1 X151.287 Y162.387 E17.72297
G1 X155.945 Y157.729 E17.97124
G1 X155.945 Y158.325 E17.99369
G1 X151.883 Y162.387 E18.21022
G1 X152.478 Y162.387 E18.23266
G1 X155.945 Y158.92 E18.41745
G1 X155.945 Y159.516 E18.4399
G1 X153.074 Y162.387 E18.59294
G1 X153.669 Y162.387 E18.61539
G1 X155.945 Y160.111 E18.73669
G1 X155.945 Y160.707 E18.75914
G1 X154.265 Y162.387 E18.84869
G1 X154.86 Y162.387 E18.87114
G1 X155.945 Y161.302 E18.92895
G1 X155.945 Y161.898 E18.9514
G1 X155.275 Y162.568 E18.98712
G1 X155.847 Y162.396 F3600
;TYPE:Gap fill
;WIDTH:0.15815
G1 F1080
G1 X155.913 Y162.377 E18.98777
;WIDTH:0.247869
G1 X155.978 Y162.357 E18.98893
;WIDTH:0.31843
G1 X156.042 Y162.35 E18.99041
G1 X165.379 Y162.35 E19.20432
G92 E0
G1 E-6 F2400
G1 Z2.5 F3600
G1 X143.631 Y159.597
G1 Z0.5
G1 E0 F2400
;WIDTH:0.26699
G1 F1080
G1 X143.501 Y159.598 E0.00242
G1 X143.442 Y159.6 E0.00353
;WIDTH:0.311529
G1 X134.669 Y159.6 E0.19946
G1 X134.602 Y159.6 E0.20096
G1 X134.535 Y159.6 E0.20246
G92 E0
G1 E-6 F2400
G1 Z2.5 F3600
G1 X144.241 Y148.844
G1 Z0.5
G1 E0 F2400
;TYPE:Internal perimeter
;WIDTH:0.464
G1 F2160
G1 X144.241 Y142.694 E0.21533
G1 X134.324 Y142.694 E0.56253
G1 X134.324 Y142.005 E0.58667
G1 X143.438 Y142.005 E0.90578
G1 X143.438 Y139.26 E1.00189
G1 X165.59 Y139.26 E1.77749
G1 X165.59 Y139.944 E1.80146
G1 X156.252 Y139.944 E2.1284
G1 X156.252 Y148.844 E2.44002
G1 X144.301 Y148.844 E2.85847
G1 X143.82 Y149.265 F3600
G1 F2160
G1 X143.82 Y143.115 E3.0738
G1 X134.183 Y143.115 E3.41122
;TYPE:Overhang perimeter
;WIDTH:0.4
;HEIGHT:0.4
M106 S84.15
G1 X133.903 Y143.115 E3.42582
G1 X133.903 Y141.584 E3.50585
G1 X134.139 Y141.584 E3.51815
M106 S30.6
;TYPE:Internal perimeter
;WIDTH:0.464
;HEIGHT:0.2
G1 X143.017 Y141.584 E3.82901
G1 X143.017 Y138.839 E3.92512
G1 X165.741 Y138.839 E4.72073
;TYPE:Overhang perimeter
;WIDTH:0.4
;HEIGHT:0.4
M106 S84.15
G1 X166.011 Y138.839 E4.73486
G1 X166.011 Y140.365 E4.81464
G1 X165.785 Y140.365 E4.82647
M106 S30.6
;TYPE:Internal perimeter
;WIDTH:0.464
;HEIGHT:0.2
G1 X156.673 Y140.365 E5.14548
G1 X156.673 Y149.265 E5.45709
G1 X143.88 Y149.265 E5.90504
G1 X143.42 Y149.632 F3600
;TYPE:External perimeter
;WIDTH:0.42
G1 F1080
G1 X143.42 Y143.515 E6.09686
G1 X134.183 Y143.515 E6.3865
;TYPE:Overhang perimeter
;WIDTH:0.4
;HEIGHT:0.4
M106 S84.15
G1 F2160
G1 X133.504 Y143.515 E6.42195
G1 X133.504 Y141.185 E6.54368
G1 X134.139 Y141.185 E6.57683
M106 S30.6
;TYPE:External perimeter
;WIDTH:0.42
;HEIGHT:0.2
G1 F1080
G1 X142.618 Y141.185 E6.84269
G1 X142.618 Y138.439 E6.92876
G1 X165.741 Y138.439 E7.65375
;TYPE:Overhang perimeter
;WIDTH:0.4
;HEIGHT:0.4
M106 S84.15
G1 F2160
G1 X165.785 Y138.439 E7.65605
G1 X166.41 Y138.439 E7.68873
G1 X166.41 Y140.765 E7.8102
